X: 39524
T: Taureen Derby
R: polka
M: 2/4
K: Adorian
|:eA BA|eA BA|G>A Bd|GA Bd|
eA BA|eA BA|G>A Bd|BA A2:|
|:a2 ge|ab/a/ ge|dB gB|de/f/ g2|
a2 ge|ab/a/ ge|dB G>A|BA A2:|

